src/assets/img/fechas_happenings.svg

<svg fill="none" viewBox="0 0 284 153" xmlns="http://www.w3.org/2000/svg"><path d="m48.9598 92.5564-1.5989.4312-3.8495-14.2741-3.0819.8312-.375-1.3903 4.6808-1.2624zm4.0303-18.1143c3.1282-.8437 6.0516.7791 6.8265 3.6524.5187 1.9233.079 3.3345-.7919 5.3591l-3.0979 7.2238-1.8537.5 3.0916-7.247c-.5569.4236-1.1807.6912-1.76.8475-2.9197.7874-5.6648-.6349-6.4897-3.6936-.7874-2.9197.9236-5.7923 4.0751-6.6422zm.3392 1.3502c-2.2013.5937-3.3458 2.6175-2.7584 4.7957.6312 2.3404 2.6256 3.468 4.827 2.8743 2.155-.5812 3.4377-2.3689 2.7628-4.8715-.5999-2.2245-2.6764-3.3797-4.8314-2.7985zm14.2927 5.1687c-1.0124-3.7539.3794-6.8884 3.6699-7.7758 1.8305-.4937 3.6643.1303 4.944 1.6495l-1.881-6.9748 1.622-.4375 4.487 16.6376-1.5062.4062-.6936-2.5721c-.3762 2.0155-1.6769 3.46-3.5539 3.9662-3.2904.8874-6.0758-1.1454-7.0882-4.8993zm1.6452-.4437c.8374 3.105 2.9068 4.5107 5.2935 3.867 2.3636-.6374 3.4669-2.9982 2.642-6.0569-.8311-3.0819-2.9807-4.4162-5.2979-3.7912-2.3867.6436-3.475 2.876-2.6376 5.9811zm19.5711 1.5328c-3.4295.9249-6.394-1.0348-7.4376-4.9045-.9624-3.5685.6825-6.8708 3.9266-7.7457 3.4758-.9374 6.5028 1.254 7.2809 5.2451l-9.4542 2.5497c.9202 2.859 2.9307 4.2308 5.3174 3.5872 2.0392-.55 3.1465-2.0666 3.0154-4.1193l1.5989-.4312c.1751 2.8611-1.4436 5.0625-4.2474 5.8187zm-3.1967-11.3926c-2.2014.5937-3.2977 2.7039-2.7876 5.425l7.7626-2.0935c-.8764-2.6969-2.7274-3.9377-4.975-3.3315zm20.9854 6.5952c-3.36.9061-6.512-1.1025-7.5054-4.7869-.9874-3.6612.7332-6.9589 4.0934-7.8651 3.383-.9124 6.528 1.073 7.516 4.7342.993 3.6844-.721 7.0054-4.104 7.9178zm-.381-1.4135c2.386-.6437 3.658-3.025 2.84-6.0606-.807-2.9892-3.103-4.4081-5.49-3.7644-2.364.6374-3.6354 3.0187-2.829 6.0079.818 3.0356 3.115 4.4545 5.479 3.8171zm13.391-2.0704c-3.221.8686-6.175-1.1436-7.187-4.8975-1-3.7076.565-6.9384 3.763-7.8008 2.85-.7687 5.401.5815 6.713 3.5089l-1.645.4437c-.971-2.1245-2.718-3.0703-4.687-2.5391-2.271.6124-3.286 3.0239-2.499 5.9436.8 2.966 2.89 4.5401 5.161 3.9277 1.993-.5375 3.01-2.2038 2.768-4.5747l1.646-.4437c.397 3.2238-1.159 5.657-4.033 6.4319zm13.787-5.657.387 1.4367c-.557.4236-1.065.66-1.667.8225-2.016.5437-3.85-.0803-4.562-2.7219l-1.994-7.392-2.873.775-.369-1.3672 2.873-.7749-.975-3.6149 1.622-.4374.975 3.6148 3.824-1.0311.368 1.3672-3.823 1.0311 1.9 7.0443c.512 1.9001 1.614 2.299 2.958 1.9365.51-.1375.902-.3426 1.356-.6887zm9.465-6.1818-1.963-7.276 1.599-.4312 3.293 12.2117-1.506.4062-.593-2.2014c-.245 1.5823-1.453 3.0018-3.237 3.483-2.48.6687-4.506-.3011-5.337-3.383l-2.144-7.948 1.622-.4375 2.05 7.6005c.669 2.4794 2.153 3.0982 3.868 2.6358 1.946-.525 2.935-2.4819 2.348-4.6601zm15.985-5.5789c1.012 3.7539-.396 6.9179-3.664 7.799-1.876.5062-3.727-.0884-5.066-1.6414l.694 2.5721-1.506.4062-4.487-16.6376 1.622-.4374 1.887 6.9979c.307-1.9967 1.584-3.435 3.438-3.9349 3.267-.8812 6.07 1.1223 7.082 4.8761zm-1.645.4437c-.838-3.105-2.924-4.4812-5.311-3.8376-2.294.6187-3.481 2.8529-2.65 5.9348.825 3.0587 2.966 4.5446 5.306 3.9134 2.387-.6437 3.492-2.9055 2.655-6.0106zm5.766-2.0025 1.763 6.5345-1.623.4375-3.293-12.2117 1.506-.4062.75 2.7806c.347-2.0324 1.842-3.6784 3.858-4.2221l.456 1.6915c-2.597.601-4.135 2.7311-3.417 5.3959zm13.123 3.7192c-3.429.9249-6.394-1.0348-7.437-4.9045-.963-3.5686.682-6.8708 3.926-7.7457 3.476-.9374 6.503 1.254 7.281 5.2451l-9.454 2.5497c.92 2.859 2.931 4.2308 5.318 3.5872 2.039-.55 3.146-2.0666 3.015-4.1193l1.599-.4312c.175 2.8611-1.444 5.0625-4.248 5.8187zm-3.196-11.3926c-2.202.5937-3.298 2.7039-2.788 5.425l7.763-2.0936c-.877-2.6968-2.728-3.9376-4.975-3.3314zm-112.5004 71.3471-.5999-2.225c-.3059 1.723-1.5389 3.05-3.439 3.562-2.5258.682-4.5522-.288-5.1459-2.49-.6437-2.386.919-4.15 4.6265-5.15.7415-.2 1.3102-.303 2.5401-.536l-.275-1.019c-.5499-2.039-1.964-2.951-3.8177-2.451-1.9928.538-2.9129 2.103-2.3986 4.102l-1.4831.4c-.6616-2.73.7279-5.043 3.5085-5.793 2.8502-.769 4.9685.45 5.731 3.277l2.1435 7.948zm-7.6448-1.618c.4 1.483 1.8041 2.174 3.5189 1.711 2.2708-.612 3.3076-2.483 2.6889-4.777l-.2937-1.089c-1.0678.189-1.7924.359-2.4644.54-2.7806.75-3.9059 1.924-3.4497 3.615zm14.0693-.115-1.622.437-4.487-16.637 1.622-.438zm5.672-9.907c-1.3998-5.19-.1882-8.6242 3.3803-9.5866 3.5454-.9561 6.3425 1.3967 7.7423 6.5876 1.3999 5.19.1989 8.572-3.3928 9.54-3.6148.975-6.3299-1.35-7.7298-6.541zm1.6684-.45c1.1624 4.31 3.1019 6.248 5.674 5.555 2.5258-.682 3.2805-3.321 2.1119-7.654-1.1749-4.3567-3.1607-6.2821-5.6865-5.6009s-3.2805 3.3209-2.0994 7.6999zm19.3799 3.375c-3.1051.837-5.7306-.419-6.5313-3.111l1.5757-.425c.6239 1.945 2.4212 2.802 4.5994 2.215 2.2477-.606 3.2836-2.203 2.7524-4.173-.5062-1.877-2.3605-2.669-4.7704-2.019l-1.5525.418-.3625-1.344 1.5062-.406c1.9233-.519 2.9361-2.1092 2.4611-3.8703-.4562-1.6916-2.02-2.5127-3.8042-2.0315-1.8538.4999-2.7694 1.9898-2.3747 3.8222l-1.5525.4187c-.5929-2.475.9525-4.8555 3.6173-5.5742 2.7807-.7499 5.1138.4354 5.7638 2.8453.4374 1.6221-.1859 3.1822-1.7069 4.3628 2.2988-.048 3.925 1.005 4.4375 2.905.7249 2.688-.907 5.117-4.0584 5.967zm10.6736-9.665c-1.012-3.7541.379-6.8886 3.67-7.776 1.83-.4937 3.664.1304 4.944 1.6495l-1.881-6.9748 1.622-.4374 4.487 16.6377-1.506.406-.694-2.572c-.376 2.015-1.677 3.46-3.554 3.966-3.29.888-6.076-1.145-7.088-4.899zm1.645-.4439c.838 3.1049 2.907 4.5109 5.294 3.8669 2.363-.637 3.467-2.998 2.642-6.0567-.831-3.0819-2.981-4.4162-5.298-3.7913-2.387.6437-3.475 2.8761-2.638 5.9811zm19.571 1.5329c-3.429.925-6.394-1.035-7.437-4.9046-.963-3.5685.682-6.8707 3.926-7.7456 3.476-.9374 6.503 1.254 7.281 5.2451l-9.454 2.5497c.92 2.859 2.931 4.2304 5.317 3.5871 2.04-.5499 3.147-2.0666 3.016-4.1193l1.599-.4312c.175 2.8612-1.444 5.0628-4.248 5.8188zm-3.196-11.3927c-2.202.5937-3.298 2.704-2.788 5.425l7.763-2.0935c-.877-2.6968-2.728-3.9376-4.975-3.3315zm15.737.1308 1.918 7.1139-1.622.4374-3.293-12.2117 1.506-.4062.619 2.294c.381-1.7186 1.589-3.1382 3.35-3.6131 2.549-.6874 4.632.4909 5.413 3.3874l2.137 7.9249-1.622.4374-1.987-7.3687c-.631-2.3404-2.053-3.3737-4.046-2.8363-1.9.5125-2.986 2.5702-2.373 4.841zm18.395 2.9187c-3.36.9061-6.511-1.1025-7.505-4.7869-.987-3.6611.733-6.9589 4.093-7.8651 3.383-.9124 6.529 1.0731 7.516 4.7342.994 3.6844-.72 7.0054-4.104 7.9178zm-.381-1.4135c2.387-.6437 3.659-3.025 2.84-6.0606-.806-2.9892-3.103-4.4081-5.49-3.7644-2.363.6374-3.635 3.0187-2.829 6.0079.819 3.0356 3.116 4.4545 5.479 3.8171zm14.51-15.7455-1.41 13.4803-1.692.4562-7.951-10.9556 1.738-.4687 6.605 9.2805 1.042-11.3427zm3.231-3.9038c.193.7184-.202 1.3719-.99 1.5844-.765.2062-1.435-.1598-1.629-.8782-.187-.6951.208-1.3487.973-1.5549.788-.2125 1.458.1536 1.646.8487zm3.569 15.17-1.622.4374-3.294-12.2117 1.623-.4374zm8.374-2.0098c-3.43.9249-6.394-1.0348-7.438-4.9045-.962-3.5685.683-6.8707 3.927-7.7456 3.476-.9374 6.503 1.254 7.281 5.245l-9.455 2.5497c.921 2.8591 2.931 4.2309 5.318 3.5872 2.039-.55 3.146-2.0666 3.015-4.1193l1.599-.4312c.175 2.8611-1.443 5.0625-4.247 5.8187zm-3.197-11.3926c-2.201.5937-3.298 2.7039-2.788 5.425l7.763-2.0935c-.876-2.6968-2.727-3.9377-4.975-3.3315zm12.813 8.5506-1.622.4375-3.293-12.2117 1.506-.4062.618 2.294c.386-1.7944 1.567-3.1319 3.305-3.6006 1.9-.5125 3.595.1491 4.586 1.7958.302-1.9209 1.531-3.4456 3.455-3.9643 2.525-.6812 4.551.5622 5.32 3.4124l2.137 7.9249-1.599.4312-1.994-7.3919c-.624-2.3172-2.047-3.3506-4.016-2.8194-1.854.4999-2.923 2.5282-2.317 4.7759l1.932 7.1602-1.623.4374-1.993-7.3919c-.625-2.3172-2.047-3.3505-4.017-2.8193-1.877.5061-2.922 2.5282-2.316 4.7758zm28.965-14.374c1.013 3.7539-.396 6.9178-3.663 7.799-1.877.5062-3.728-.0884-5.067-1.6415l.694 2.5721-1.506.4062-4.487-16.6375 1.622-.4375 1.887 6.998c.307-1.9967 1.584-3.435 3.438-3.9349 3.267-.8812 6.07 1.1222 7.082 4.8761zm-1.645.4437c-.837-3.1051-2.924-4.4813-5.31-3.8376-2.294.6187-3.482 2.8529-2.651 5.9348.825 3.0587 2.966 4.5445 5.306 3.9133 2.387-.6436 3.492-2.9054 2.655-6.0105zm5.766-2.0026 1.763 6.5346-1.622.4374-3.294-12.2117 1.506-.4062.75 2.7807c.347-2.0324 1.842-3.6785 3.858-4.2222l.456 1.6916c-2.597.601-4.135 2.731-3.417 5.3958zm13.124 3.7192c-3.43.9249-6.394-1.0348-7.438-4.9045-.963-3.5685.682-6.8707 3.926-7.7456 3.476-.9374 6.503 1.254 7.281 5.2451l-9.454 2.5497c.92 2.859 2.931 4.2308 5.318 3.5871 2.039-.5499 3.146-2.0666 3.015-4.1193l1.599-.4312c.175 2.8611-1.444 5.0626-4.247 5.8187zm-3.197-11.3926c-2.202.5937-3.298 2.704-2.788 5.425l7.763-2.0935c-.877-2.6968-2.728-3.9377-4.975-3.3315z" fill="#3c5430"/><path d="m24.2815 42.2928c90.6375 15.3458 163.7435-68.209 230.3865-23.998 102.213 67.807-147.868 150.4302-221.6525 124.1512-42.29025-15.061-24.36187-67.5673-23.11421-101.9904.0727-2.0058 2.10501-.2411 14.38021 1.8372z" stroke="#527442" stroke-linecap="round" stroke-width="9.55865"/></svg>

<svg viewBox="0 0 284 153" fill="none" xmlns="http://www.w3.org/2000/svg">
<path d="M48.9598 92.5564L47.3609 92.9876L43.5114 78.7135L40.4295 79.5447L40.0545 78.1544L44.7353 76.892L48.9598 92.5564ZM52.9901 74.4421C56.1183 73.5984 59.0417 75.2212 59.8166 78.0945C60.3353 80.0178 59.8956 81.429 59.0247 83.4536L55.9268 90.6774L54.0731 91.1774L57.1647 83.9304C56.6078 84.354 55.984 84.6216 55.4047 84.7779C52.485 85.5653 49.7399 84.143 48.915 81.0843C48.1276 78.1646 49.8386 75.292 52.9901 74.4421ZM53.3293 75.7923C51.128 76.386 49.9835 78.4098 50.5709 80.588C51.2021 82.9284 53.1965 84.056 55.3979 83.4623C57.5529 82.8811 58.8356 81.0934 58.1607 78.5908C57.5608 76.3663 55.4843 75.2111 53.3293 75.7923ZM67.622 80.961C66.6096 77.2071 68.0014 74.0726 71.2919 73.1852C73.1224 72.6915 74.9562 73.3155 76.2359 74.8347L74.3549 67.8599L75.9769 67.4224L80.4639 84.06L78.9577 84.4662L78.2641 81.8941C77.8879 83.9096 76.5872 85.3541 74.7102 85.8603C71.4198 86.7477 68.6344 84.7149 67.622 80.961ZM69.2672 80.5173C70.1046 83.6223 72.174 85.028 74.5607 84.3843C76.9243 83.7469 78.0276 81.3861 77.2027 78.3274C76.3716 75.2455 74.222 73.9112 71.9048 74.5362C69.5181 75.1798 68.4298 77.4122 69.2672 80.5173ZM88.8383 82.0501C85.4088 82.975 82.4443 81.0153 81.4007 77.1456C80.4383 73.5771 82.0832 70.2748 85.3273 69.3999C88.8031 68.4625 91.8301 70.6539 92.6082 74.645L83.154 77.1947C84.0742 80.0537 86.0847 81.4255 88.4714 80.7819C90.5106 80.2319 91.6179 78.7153 91.4868 76.6626L93.0857 76.2314C93.2608 79.0925 91.6421 81.2939 88.8383 82.0501ZM85.6416 70.6575C83.4402 71.2512 82.3439 73.3614 82.854 76.0825L90.6166 73.989C89.7402 71.2921 87.8892 70.0513 85.6416 70.6575ZM106.627 77.2527C103.267 78.1588 100.115 76.1502 99.1216 72.4658C98.1342 68.8046 99.8548 65.5069 103.215 64.6007C106.598 63.6883 109.743 65.6737 110.731 69.3349C111.724 73.0193 110.01 76.3403 106.627 77.2527ZM106.246 75.8392C108.632 75.1955 109.904 72.8142 109.086 69.7786C108.279 66.7894 105.983 65.3705 103.596 66.0142C101.232 66.6516 99.9606 69.0329 100.767 72.0221C101.585 75.0577 103.882 76.4766 106.246 75.8392ZM119.637 73.7688C116.416 74.6374 113.462 72.6252 112.45 68.8713C111.45 65.1637 113.015 61.9329 116.213 61.0705C119.063 60.3018 121.614 61.652 122.926 64.5794L121.281 65.0231C120.31 62.8986 118.563 61.9528 116.594 62.484C114.323 63.0964 113.308 65.5079 114.095 68.4276C114.895 71.3936 116.985 72.9677 119.256 72.3553C121.249 71.8178 122.266 70.1515 122.024 67.7806L123.67 67.3369C124.067 70.5607 122.511 72.9939 119.637 73.7688ZM133.424 68.1118L133.811 69.5485C133.254 69.9721 132.746 70.2085 132.144 70.371C130.128 70.9147 128.294 70.2907 127.582 67.6491L125.588 60.2571L122.715 61.0321L122.346 59.6649L125.219 58.89L124.244 55.2751L125.866 54.8377L126.841 58.4525L130.665 57.4214L131.033 58.7886L127.21 59.8197L129.11 66.864C129.622 68.7641 130.724 69.163 132.068 68.8005C132.578 68.663 132.97 68.4579 133.424 68.1118ZM142.889 61.93L140.926 54.654L142.525 54.2228L145.818 66.4345L144.312 66.8407L143.719 64.6393C143.474 66.2216 142.266 67.6411 140.482 68.1223C138.002 68.791 135.976 67.8212 135.145 64.7393L133.001 56.7913L134.623 56.3538L136.673 63.9543C137.342 66.4337 138.826 67.0525 140.541 66.5901C142.487 66.0651 143.476 64.1082 142.889 61.93ZM158.874 56.3511C159.886 60.105 158.478 63.269 155.21 64.1501C153.334 64.6563 151.483 64.0617 150.144 62.5087L150.838 65.0808L149.332 65.487L144.845 48.8494L146.467 48.412L148.354 55.4099C148.661 53.4132 149.938 51.9749 151.792 51.475C155.059 50.5938 157.862 52.5973 158.874 56.3511ZM157.229 56.7948C156.391 53.6898 154.305 52.3136 151.918 52.9572C149.624 53.5759 148.437 55.8101 149.268 58.892C150.093 61.9507 152.234 63.4366 154.574 62.8054C156.961 62.1617 158.066 59.8999 157.229 56.7948ZM162.995 54.7923L164.758 61.3268L163.135 61.7643L159.842 49.5526L161.348 49.1464L162.098 51.927C162.445 49.8946 163.94 48.2486 165.956 47.7049L166.412 49.3964C163.815 49.9974 162.277 52.1275 162.995 54.7923ZM176.118 58.5115C172.689 59.4364 169.724 57.4767 168.681 53.607C167.718 50.0384 169.363 46.7362 172.607 45.8613C176.083 44.9239 179.11 47.1153 179.888 51.1064L170.434 53.6561C171.354 56.5151 173.365 57.8869 175.752 57.2433C177.791 56.6933 178.898 55.1767 178.767 53.124L180.366 52.6928C180.541 55.5539 178.922 57.7553 176.118 58.5115ZM172.922 47.1189C170.72 47.7126 169.624 49.8228 170.134 52.5439L177.897 50.4503C177.02 47.7535 175.169 46.5127 172.922 47.1189ZM60.4216 118.466L59.8217 116.241C59.5158 117.964 58.2828 119.291 56.3827 119.803C53.8569 120.485 51.8305 119.515 51.2368 117.313C50.5931 114.927 52.1558 113.163 55.8633 112.163C56.6048 111.963 57.1735 111.86 58.4034 111.627L58.1284 110.608C57.5785 108.569 56.1644 107.657 54.3107 108.157C52.3179 108.695 51.3978 110.26 51.9121 112.259L50.429 112.659C49.7674 109.929 51.1569 107.616 53.9375 106.866C56.7877 106.097 58.906 107.316 59.6685 110.143L61.812 118.091L60.4216 118.466ZM52.7768 116.848C53.1768 118.331 54.5809 119.022 56.2957 118.559C58.5665 117.947 59.6033 116.076 58.9846 113.782L58.6909 112.693C57.6231 112.882 56.8985 113.052 56.2265 113.233C53.4459 113.983 52.3206 115.157 52.7768 116.848ZM66.8461 116.733L65.2241 117.17L60.7371 100.533L62.3591 100.095L66.8461 116.733ZM72.5181 106.826C71.1183 101.636 72.3299 98.2018 75.8984 97.2394C79.4438 96.2833 82.2409 98.6361 83.6407 103.827C85.0406 109.017 83.8396 112.399 80.2479 113.367C76.6331 114.342 73.918 112.017 72.5181 106.826ZM74.1865 106.376C75.3489 110.686 77.2884 112.624 79.8605 111.931C82.3863 111.249 83.141 108.61 81.9724 104.277C80.7975 99.9203 78.8117 97.9949 76.2859 98.6761C73.7601 99.3573 73.0054 101.997 74.1865 106.376ZM93.5664 109.751C90.4613 110.588 87.8358 109.332 87.0351 106.64L88.6108 106.215C89.2347 108.16 91.032 109.017 93.2102 108.43C95.4579 107.824 96.4938 106.227 95.9626 104.257C95.4564 102.38 93.6021 101.588 91.1922 102.238L89.6397 102.656L89.2772 101.312L90.7834 100.906C92.7067 100.387 93.7195 98.7968 93.2445 97.0357C92.7883 95.3441 91.2245 94.523 89.4403 95.0042C87.5865 95.5041 86.6709 96.994 87.0656 98.8264L85.5131 99.2451C84.9202 96.7701 86.4656 94.3896 89.1304 93.6709C91.9111 92.921 94.2442 94.1063 94.8942 96.5162C95.3316 98.1383 94.7083 99.6984 93.1873 100.879C95.4861 100.831 97.1123 101.884 97.6248 103.784C98.3497 106.472 96.7178 108.901 93.5664 109.751ZM104.24 100.086C103.228 96.3319 104.619 93.1974 107.91 92.31C109.74 91.8163 111.574 92.4404 112.854 93.9595L110.973 86.9847L112.595 86.5473L117.082 103.185L115.576 103.591L114.882 101.019C114.506 103.034 113.205 104.479 111.328 104.985C108.038 105.873 105.252 103.84 104.24 100.086ZM105.885 99.6421C106.723 102.747 108.792 104.153 111.179 103.509C113.542 102.872 114.646 100.511 113.821 97.4523C112.99 94.3704 110.84 93.0361 108.523 93.661C106.136 94.3047 105.048 96.5371 105.885 99.6421ZM125.456 101.175C122.027 102.1 119.062 100.14 118.019 96.2704C117.056 92.7019 118.701 89.3997 121.945 88.5248C125.421 87.5874 128.448 89.7788 129.226 93.7699L119.772 96.3196C120.692 99.1786 122.703 100.55 125.089 99.9067C127.129 99.3568 128.236 97.8401 128.105 95.7874L129.704 95.3562C129.879 98.2174 128.26 100.419 125.456 101.175ZM122.26 89.7823C120.058 90.376 118.962 92.4863 119.472 95.2073L127.235 93.1138C126.358 90.417 124.507 89.1762 122.26 89.7823ZM137.997 89.9131L139.915 97.027L138.293 97.4644L135 85.2527L136.506 84.8465L137.125 87.1405C137.506 85.4219 138.714 84.0023 140.475 83.5274C143.024 82.84 145.107 84.0183 145.888 86.9148L148.025 94.8397L146.403 95.2771L144.416 87.9084C143.785 85.568 142.363 84.5347 140.37 85.0721C138.47 85.5846 137.384 87.6423 137.997 89.9131ZM156.392 92.8318C153.032 93.7379 149.881 91.7293 148.887 88.0449C147.9 84.3838 149.62 81.086 152.98 80.1798C156.363 79.2674 159.509 81.2529 160.496 84.914C161.49 88.5984 159.776 91.9194 156.392 92.8318ZM156.011 91.4183C158.398 90.7746 159.67 88.3933 158.851 85.3577C158.045 82.3685 155.748 80.9496 153.361 81.5933C150.998 82.2307 149.726 84.612 150.532 87.6012C151.351 90.6368 153.648 92.0557 156.011 91.4183ZM170.521 75.6728L169.111 89.1531L167.419 89.6093L159.468 78.6537L161.206 78.185L167.811 87.4655L168.853 76.1228L170.521 75.6728ZM173.752 71.769C173.945 72.4874 173.55 73.1409 172.762 73.3534C171.997 73.5596 171.327 73.1936 171.133 72.4752C170.946 71.7801 171.341 71.1265 172.106 70.9203C172.894 70.7078 173.564 71.0739 173.752 71.769ZM177.321 86.939L175.699 87.3764L172.405 75.1647L174.028 74.7273L177.321 86.939ZM185.695 84.9292C182.265 85.8541 179.301 83.8944 178.257 80.0247C177.295 76.4562 178.94 73.154 182.184 72.2791C185.66 71.3417 188.687 73.5331 189.465 77.5241L180.01 80.0738C180.931 82.9329 182.941 84.3047 185.328 83.661C187.367 83.111 188.474 81.5944 188.343 79.5417L189.942 79.1105C190.117 81.9716 188.499 84.173 185.695 84.9292ZM182.498 73.5366C180.297 74.1303 179.2 76.2405 179.71 78.9616L187.473 76.8681C186.597 74.1713 184.746 72.9304 182.498 73.5366ZM195.311 82.0872L193.689 82.5247L190.396 70.313L191.902 69.9068L192.52 72.2008C192.906 70.4064 194.087 69.0689 195.825 68.6002C197.725 68.0877 199.42 68.7493 200.411 70.396C200.713 68.4751 201.942 66.9504 203.866 66.4317C206.391 65.7505 208.417 66.9939 209.186 69.8441L211.323 77.769L209.724 78.2002L207.73 70.8083C207.106 68.4911 205.683 67.4577 203.714 67.9889C201.86 68.4888 200.791 70.5171 201.397 72.7648L203.329 79.925L201.706 80.3624L199.713 72.9705C199.088 70.6533 197.666 69.62 195.696 70.1512C193.819 70.6573 192.774 72.6794 193.38 74.927L195.311 82.0872ZM224.276 67.7132C225.289 71.4671 223.88 74.631 220.613 75.5122C218.736 76.0184 216.885 75.4238 215.546 73.8707L216.24 76.4428L214.734 76.849L210.247 60.2115L211.869 59.774L213.756 66.772C214.063 64.7753 215.34 63.337 217.194 62.8371C220.461 61.9559 223.264 63.9593 224.276 67.7132ZM222.631 68.1569C221.794 65.0518 219.707 63.6756 217.321 64.3193C215.027 64.938 213.839 67.1722 214.67 70.2541C215.495 73.3128 217.636 74.7986 219.976 74.1674C222.363 73.5238 223.468 71.262 222.631 68.1569ZM228.397 66.1543L230.16 72.6889L228.538 73.1263L225.244 60.9146L226.75 60.5084L227.5 63.2891C227.847 61.2567 229.342 59.6106 231.358 59.0669L231.814 60.7585C229.217 61.3595 227.679 63.4895 228.397 66.1543ZM241.521 69.8735C238.091 70.7984 235.127 68.8387 234.083 64.969C233.12 61.4005 234.765 58.0983 238.009 57.2234C241.485 56.286 244.512 58.4774 245.29 62.4685L235.836 65.0182C236.756 67.8772 238.767 69.249 241.154 68.6053C243.193 68.0554 244.3 66.5387 244.169 64.486L245.768 64.0548C245.943 66.9159 244.324 69.1174 241.521 69.8735ZM238.324 58.4809C236.122 59.0746 235.026 61.1849 235.536 63.9059L243.299 61.8124C242.422 59.1156 240.571 57.8747 238.324 58.4809Z" fill="#3C5430"/>
<path d="M24.2815 42.2928C114.919 57.6386 188.025 -25.9162 254.668 18.2948C356.881 86.1018 106.8 168.725 33.0155 142.446C-9.27475 127.385 8.65363 74.8787 9.90129 40.4556C9.97399 38.4498 12.0063 40.2145 24.2815 42.2928Z" stroke="#527442" stroke-width="9.55865" stroke-linecap="round"/>
</svg>
